!!!!SEGMENT: pl-wtm--r-90-n--005_noskowski-zygmunt--piesni-op-63-kizi-lapki.krn
!!!cenid: 18xx:2124
!!!COM: Noskowski, Zygmunt
!!!COM-rismid: pe106604
!!!CDT: 1846/05/02-1909/07/23
!!!CNT: Polish
!!!GTL: Pieśni op. 63
!!!OTL: Kizi łapki
!!!PDT: 1899
!!!AGN: Secular; Song
!!!SMS-siglum: PL-Wtm
!!!SMS-shelfmark: R 90/N
!!!SMS-shelfwork: 005 G
!!!SMS-variant:
!!!SMS-altvar:
!!!NIFC-rismid: 1001100013
!!!URL-scan: http://repozytorium.nifc.pl/skany/pl-wtm-nut--r90n
!!!ONB-nifc: UWAGA: w zbiorze 10 krótkich pieśni
!!!OMD: Allegretto modto
!!!key:
**kern	**kern	**text
*part1	*part1	*part1
*staff2	*staff1	*staff1
*Iempty	*Iempty	*
*I"	*I"	*
*clefF4	*clefG2	*
*k[f#c#g#]	*k[f#c#g#]	*
*A:	*A:	*
*M3/4	*M3/4	*
*>[A,B,B]	*>[A,B,B]	*>[A,B,B]
=1	=1	=1
*>A	*>A	*>A
4E 4AA/	8a 8c#/	Ki-
.	8cc#\	-zi
2E 2AA/	4.b 4.d/	ki-
.	8a/	-zi
=2	=2	=2
4E 4AA/	4cc# 4c#/	łap-
4E 4AA/	4e 4c#/	-ki
4E 4AA/	4r	.
=3	=3	=3
4E 4AA/	8f# 8d/	Po-
.	8g#/	-je-
2E 2AA/	4.e 4.d/	-dziem
.	8b\	do
=4	=4	=4
4E 4AA/	4a 4c#/	bab-
4A\	4cc#\	-ki
4E\	4r	.
=5	=5	=5
*	*^	*
4A 4D#X\	8b/	4f#\	Na
.	8a/	.	a-
4r	4a/	4rc	-pe-
4A 4BB\	4cc#/	4d#X\	-tyt
*	*v	*v	*
!!LO:LB:g=original
=6	=6	=6
4G# 4E\	8a 8e/	wiel-
.	8g#/	-ki,
4r	4b/	ko-
4G# 4E\	4e/	-ci
=7	=7	=7
4A 4BB\	8g# 8d#X/	Da
.	8f#/	ba-
4r	4f#/	-bu-
4F# 4BB\	4a 4d#/	-nia
=8	=8	=8
*	*^	*
4A 4F# 4BB\	8c#/	2rcyy	nam
.	8d#X/	.	ła-
4G# 4E\	4e/	.	-ko-
4E\	4g#/	4dn\	-ci
*	*v	*v	*
=9!|:	=9!|:	=9!|:
*>B	*>B	*>B
4E 4AA/	8a 8c#/	Bę-
.	8g#/	-dziem
4E 4AA/	(>4f# 4d/	je-
4E 4AA/	4g# 4d/)	.
=10	=10	=10
4E 4AA/	2.a 2.c#/	-dli
4E 4AA/	.	.
4E 4AA/	.	.
!!LO:LB:g=original
=11	=11	=11
4E 4AA/	8a 8c#/	bę-
.	8g#/	-dziem
4E 4AA/	(>4f# 4d/	pi-
4E 4AA/	4g# 4d/)	.
=12	=12	=12
4E 4AA/	2.e 2.c#/	-li
4E 4AA/	.	.
4E 4AA/	.	.
=13	=13	=13
8A\	8a/	Bę-
8G#\	8g#/	-dziem
4E\	4e/	spo-
4G#\	4g#/	-łem
=14	=14	=14
8A\	8a/	się
8G#\	8g#/	cie-
4A\	4a/	-szy-
4c#\	4cc#\	-li
=15	=15	=15
4B\	(>4dd 4b/	Tak
2B 2E\	2ee 2g#/)	.
=16	=16	=16
4E\	(4g# 4d/	tak
!	!LO:S:s=1:note:problem:note-level slur	!
2E 2AA/	2a 2c#/)	.
=:|!	=:|!	=:|!
*-	*-	*-
!!!system-decoration: {(s1,s2)}
!!!RDF**kern: > = above
!!!AIN: 1 empty
!!!ENC: Marta Lawrence
!!!END: 2021-06-02
!!!ENC: Mateusz Solarz
!!!END: 2021-05-11
